X: 6766
T: Chanter, The
R: jig
M: 6/8
K: Cmajor
|:a|gec cBc|dBG G2 a|gec cBc|fef a2 f|
gec cBc|dBG G2 c|AGF EcA|GE[Cc] [C2c2]:|
F|E[Cc]E GE[Cc]|FEF AGF|E[Cc]E GE[Cc]|[Dd][B,B][G,G] [G,2G2] F|
E[Cc]E GE[Cc]|FEF A2 F|EcA G[Ee][Dd]|[Ee][Cc][B,B] [C2c2] F|
E[Cc]E GE[Cc]|FEF AGF|E[Cc]E ceg|fdd d2 F|
EGc FAc|edc agf|g[c'a]e dcd|ecB c2||

